Sweet-Rainbow/icons/internet-mail.svg

<?xml version="1.0" encoding="UTF-8" standalone="no"?>
<!-- Generator: Gravit.io -->

<svg
   xmlns:dc="http://purl.org/dc/elements/1.1/"
   xmlns:cc="http://creativecommons.org/ns#"
   xmlns:rdf="http://www.w3.org/1999/02/22-rdf-syntax-ns#"
   xmlns:svg="http://www.w3.org/2000/svg"
   xmlns="http://www.w3.org/2000/svg"
   xmlns:sodipodi="http://sodipodi.sourceforge.net/DTD/sodipodi-0.dtd"
   xmlns:inkscape="http://www.inkscape.org/namespaces/inkscape"
   style="isolation:isolate"
   viewBox="0 0 48 48"
   width="48"
   height="48"
   version="1.1"
   id="svg16"
   sodipodi:docname="internet-mail.svg"
   inkscape:version="0.92.4 (5da689c313, 2019-01-14)">
  <metadata
     id="metadata22">
    <rdf:RDF>
      <cc:Work
         rdf:about="">
        <dc:format>image/svg+xml</dc:format>
        <dc:type
           rdf:resource="http://purl.org/dc/dcmitype/StillImage" />
        <dc:title></dc:title>
      </cc:Work>
    </rdf:RDF>
  </metadata>
  <defs
     id="defs20" />
  <sodipodi:namedview
     pagecolor="#ffffff"
     bordercolor="#666666"
     borderopacity="1"
     objecttolerance="10"
     gridtolerance="10"
     guidetolerance="10"
     inkscape:pageopacity="0"
     inkscape:pageshadow="2"
     inkscape:window-width="640"
     inkscape:window-height="480"
     id="namedview18"
     showgrid="false"
     inkscape:zoom="39.153656"
     inkscape:cx="18.994082"
     inkscape:cy="24"
     inkscape:current-layer="svg16" />
  <linearGradient
     id="_lgradient_5"
     x1="0"
     y1="0.5"
     x2="1"
     y2="0.5"
     gradientTransform="matrix(44,0,0,22,2,24)"
     gradientUnits="userSpaceOnUse">
    <stop
       offset="0%"
       stop-opacity="1"
       style="stop-color:rgb(242,55,239)"
       id="stop2" />
    <stop
       offset="98.69565217391305%"
       stop-opacity="1"
       style="stop-color:rgb(252,82,82)"
       id="stop4" />
  </linearGradient>
  <linearGradient
     id="_lgradient_6"
     x1="0"
     y1="0.5"
     x2="1"
     y2="0.5"
     gradientTransform="matrix(44,0,0,25.56,2,10)"
     gradientUnits="userSpaceOnUse">
    <stop
       offset="0%"
       stop-opacity="1"
       style="stop-color:rgb(242,55,239)"
       id="stop9" />
    <stop
       offset="98.69565217391305%"
       stop-opacity="1"
       style="stop-color:rgb(252,82,82)"
       id="stop11" />
  </linearGradient>
  <g
     id="g831"
     transform="matrix(1.0909091,0,0,1.0909091,-2.1818184,-6.5454548)">
    <path
       id="path7"
       d="m 42,26 v 0 c 0,-1.104 0.896,-2 2,-2 v 0 c 1.104,0 2,0.896 2,2 v 0 15 c 0,2.76 -2.24,5 -5,5 H 7 C 4.24,46 2,43.76 2,41 v -15 0 c 0,-1.104 0.896,-2 2,-2 v 0 c 1.104,0 2,0.896 2,2 v 0 13 c 0,1.656 1.344,3 3,3 h 30 c 1.656,0 3,-1.344 3,-3 z"
       style="fill:url(#_lgradient_5)"
       inkscape:connector-curvature="0" />
    <path
       id="path14"
       d="m 4,10 h 40 c 1.104,0 2,0.896 2,2 v 5.04 c 0,1.104 -0.687,2.575 -1.534,3.283 L 27.835,34.232 c -2.116,1.771 -5.554,1.771 -7.67,0 L 3.534,20.323 C 2.687,19.615 2,18.144 2,17.04 V 12 c 0,-1.104 0.896,-2 2,-2 z m 3,4 h 34 c 0.552,0 1,0.448 1,1 v 0.96 c 0,0.552 -0.339,1.293 -0.756,1.655 l -14.977,12.98 c -1.251,1.085 -3.283,1.085 -4.534,0 L 6.756,17.615 C 6.339,17.253 6,16.512 6,15.96 V 15 c 0,-0.552 0.448,-1 1,-1 z"
       style="fill:url(#_lgradient_6);fill-rule:evenodd"
       inkscape:connector-curvature="0" />
  </g>
</svg>

<?xml version="1.0" standalone="no"?><!-- Generator: Gravit.io --><svg xmlns="http://www.w3.org/2000/svg" xmlns:xlink="http://www.w3.org/1999/xlink" style="isolation:isolate" viewBox="0 0 48 48" width="48" height="48"><linearGradient id="_lgradient_5" x1="0" y1="0.5" x2="1" y2="0.5" gradientTransform="matrix(44,0,0,22,2,24)" gradientUnits="userSpaceOnUse"><stop offset="0%" stop-opacity="1" style="stop-color:rgb(242,55,239)"/><stop offset="98.69565217391305%" stop-opacity="1" style="stop-color:rgb(252,82,82)"/></linearGradient><path d=" M 42 26 L 42 26 C 42 24.896 42.896 24 44 24 L 44 24 C 45.104 24 46 24.896 46 26 L 46 26 L 46 41 C 46 43.76 43.76 46 41 46 L 7 46 C 4.24 46 2 43.76 2 41 L 2 26 L 2 26 C 2 24.896 2.896 24 4 24 L 4 24 C 5.104 24 6 24.896 6 26 L 6 26 L 6 39 C 6 40.656 7.344 42 9 42 L 39 42 C 40.656 42 42 40.656 42 39 L 42 26 Z " fill="url(#_lgradient_5)"/><linearGradient id="_lgradient_6" x1="0" y1="0.5" x2="1" y2="0.5" gradientTransform="matrix(44,0,0,25.56,2,10)" gradientUnits="userSpaceOnUse"><stop offset="0%" stop-opacity="1" style="stop-color:rgb(242,55,239)"/><stop offset="98.69565217391305%" stop-opacity="1" style="stop-color:rgb(252,82,82)"/></linearGradient><path d=" M 4 10 L 44 10 C 45.104 10 46 10.896 46 12 L 46 17.04 C 46 18.144 45.313 19.615 44.466 20.323 L 27.835 34.232 C 25.719 36.003 22.281 36.003 20.165 34.232 L 3.534 20.323 C 2.687 19.615 2 18.144 2 17.04 L 2 12 C 2 10.896 2.896 10 4 10 Z  M 7 14 L 41 14 C 41.552 14 42 14.448 42 15 L 42 15.96 C 42 16.512 41.661 17.253 41.244 17.615 L 26.267 30.595 C 25.016 31.68 22.984 31.68 21.733 30.595 L 6.756 17.615 C 6.339 17.253 6 16.512 6 15.96 L 6 15 C 6 14.448 6.448 14 7 14 Z " fill-rule="evenodd" fill="url(#_lgradient_6)"/></svg>
